X:190
T: FUESELIER SIND LUSTGE BRUEDER
N: E1331A
O: Europa, Mitteleuropa, Deutschland, Sachsen
R: Staende -, Soldaten -, Kriegs - Lied
M: 4/4
L: 1/8
K: F
 | F2C2F2A2 | G2G2F2C2
F3GA2F2 | c4z4
F2C2F2A2 | G2G2F2C2
F3GA2F2 | c4z4
d2d2f2d2 | c2c2A2F2
c2c2B2G2 | F2A2c2f2
d2d2f2d2 | c2c2A2F2
c2c2B2G2 | F4z2
c2 | A2c2A2c2 | dcBAB2
B2 | G2B2G2B2 | cBAGA2z
C | F4A2F2 | G4B2
G2 | c2c2e2e2 | f4z4

